X: 1
T: the Ash Grove  [G]
T: Away in a Manger
O: Wales
R: waltz
M: 3/4
L: 1/4
K: G
D |\
"G"GGB/A/ | GGD | "C"EGE | "D7"D2D | "G"GGA | "(Em)"BBd | "(A7)"dBG | "D7"A2D |
"G"GGB/A/ | GGD | "C"EcE | "D7"D2D | "G"GGA | "(Em)"Bdc | "D7"BDF | "G"G2 |]
F/G/ |\
"D"AAd | AAF | "A7"AGE | "D"D2F/G/ | AAd | AAF | "A7"G/F/ G/A/ B/^c/ | "D"d"D7"e2 |
"G"dBB/A/ | GGD | "C"EcE | "D7"D2D | "G"GGA | "(Em)"Bdc | "D7"BDF | "G"G2 |]
